packages/other/assets/technologies/python.svg

<svg xmlns="http://www.w3.org/2000/svg" viewBox="0 0 39 39">
  <title>Python</title>
  <g fill="none" fill-rule="evenodd">
    <circle cx="19.5" cy="19.5" r="19.5" fill="#05192D"/>
    <path fill="#FFF" fill-rule="nonzero" d="M26.8488223,14.5522388 C28.2808791,14.5522388 28.9559607,15.6073019 29.3093677,17.0092849 C29.8013384,18.9565882 29.8231441,20.4165448 29.3093677,21.9347955 C28.8121489,23.4093758 28.2790891,24.3917215 26.8488223,24.3917215 L26.8488223,24.3917215 L19.4732887,24.3917215 L19.4732887,25.0072751 L24.3884398,25.0072751 L24.3884398,26.8544567 C24.3884398,28.2527939 23.1668324,28.9639018 21.9280165,29.3169516 C20.0640361,29.8498118 18.5704677,29.7680398 17.0127028,29.3169516 C15.7118057,28.9403437 14.5522388,28.1676565 14.5522388,26.8544567 L14.5522388,26.8544567 L14.5522388,22.2395675 C14.5522388,20.9117442 15.6663636,19.7768322 17.0127028,19.7768322 L17.0127028,19.7768322 L21.9280572,19.7768322 C23.5658849,19.7768322 25.0020912,18.3728059 25.0020912,16.7041924 L25.0020912,16.7041924 L25.0020912,14.5522388 Z M21.6827909,25.9029851 C21.1220518,25.9029851 20.6641342,26.3568164 20.6641791,26.9183493 C20.6641791,27.4817826 21.1220966,27.9402985 21.6827909,27.9402985 C22.2455497,27.9402985 22.7014925,27.4817826 22.7014925,26.9183493 C22.7014925,26.3568164 22.2455497,25.9029851 21.6827909,25.9029851 Z M19.4133974,9.3136101 C20.2562967,9.30961329 21.1352731,9.37311819 21.9823305,9.51280476 C23.3204847,9.73367909 24.4477612,10.7280375 24.4477612,12.0512649 L24.4477612,12.0512649 L24.4477612,16.7012934 C24.4477612,18.064933 23.3533414,19.1827889 21.9823305,19.1827889 L21.9823305,19.1827889 L17.0570133,19.1827889 C15.3848301,19.1827889 13.9766415,20.6047658 13.9766415,22.21645 L13.9766415,22.21645 L13.9766415,24.4477612 L12.281263,24.4477612 C10.8481262,24.4477612 10.0111786,23.4176333 9.66063975,21.9719985 C9.18764265,20.0297497 9.20786212,18.8688574 9.66063975,17.0087249 C10.0530443,15.3859788 11.3078747,14.5329219 12.7409707,14.5329219 L12.7409707,14.5329219 L19.5226477,14.5329219 L19.5226477,13.9125682 L14.5915826,13.9125682 L14.5915826,12.0513053 C14.5915826,10.6420455 14.9704124,9.87796805 17.057054,9.51284513 C17.7654286,9.38866135 18.5704572,9.31756654 19.4133974,9.3136101 Z M16.7350746,11.0597015 C16.1722308,11.0597015 15.7164179,11.5179667 15.7164179,12.0814074 C15.7164179,12.6428596 16.1722308,13.0970149 16.7350746,13.0970149 C17.2957644,13.0970149 17.7537313,12.6428596 17.7537313,12.0814074 C17.7537313,11.5179667 17.2957644,11.0597015 16.7350746,11.0597015 Z"/>
  </g>
</svg>

<svg xmlns="http://www.w3.org/2000/svg" xmlns:xlink="http://www.w3.org/1999/xlink" width="39" height="39"><title>Python</title><defs><linearGradient id="b" x1="50%" x2="50%" y1="3.249%" y2="96.774%"><stop offset="1.539%" stop-color="#82DA9E"/><stop offset="100%" stop-color="#48AE76"/></linearGradient><circle id="a" cx="19.5" cy="19.5" r="19.5"/><path id="c" d="M26.849 14.552c1.432 0 2.107 1.055 2.46 2.457.492 1.948.514 3.408 0 4.926-.497 1.474-1.03 2.457-2.46 2.457h-7.376v.615h4.915v1.847c0 1.399-1.221 2.11-2.46 2.463-1.864.533-3.358.451-4.915 0-1.301-.377-2.46-1.15-2.46-2.463V22.24c0-1.328 1.113-2.463 2.46-2.463h4.915c1.638 0 3.074-1.404 3.074-3.073v-2.152zm-5.166 11.351a1.018 1.018 0 101.018 1.015c0-.561-.455-1.015-1.018-1.015zm-2.27-16.59a15.51 15.51 0 012.57.2c1.337.22 2.465 1.215 2.465 2.538v4.65a2.472 2.472 0 01-2.466 2.482h-4.925c-1.672 0-3.08 1.422-3.08 3.033v2.232H12.28c-1.433 0-2.27-1.03-2.62-2.476-.473-1.942-.453-3.103 0-4.963.392-1.623 1.647-2.476 3.08-2.476h6.782v-.62h-4.931V12.05c0-1.409.378-2.173 2.465-2.538a14.217 14.217 0 012.356-.2zm-2.678 1.747a1.02 1.02 0 00-1.019 1.021c0 .562.456 1.016 1.02 1.016a1.018 1.018 0 100-2.037z"/></defs><g fill="none" fill-rule="evenodd"><use fill="url(#b)" xlink:href="#a"/><use fill="#FFF" fill-rule="nonzero" xlink:href="#c"/></g></svg>
